icons-common/accumulator.svg

<svg height="1em" width="auto" viewBox="0 0 105 105" fill="currentColor" xmlns="http://www.w3.org/2000/svg">
    <path d="M101.241 45.9825C101.98 50.9444 101.98 55.8639 101.241 60.8258C100.631 64.3458 95.2788 64.3033 94.713 60.8258C93.9733 55.8639 93.9733 50.9444 94.713 45.9825C95.0177 44.2437 96.7583 43.0563 98.5425 43.3531C99.935 43.6076 100.979 44.6678 101.241 45.9825Z"
          />
    <path d="M91.4922 62.3104V55.016V40.512C91.8403 33.8962 85.748 27.662 78.8724 27.8316L58.7243 27.7468L47.497 27.662L19.2113 27.5348C16.4263 27.5348 12.8144 27.3651 10.2904 28.7646C5.59066 30.8003 2.5445 35.9742 2.8056 40.8937V66.3393C2.5445 73.1248 8.85439 79.5286 15.9041 79.2742L36.0957 79.1894H47.323L75.5652 79.0197H79.4381C84.5296 78.8077 89.2729 75.2877 90.883 70.5379C91.8838 67.8661 91.3616 64.8974 91.4922 62.3104ZM50.8913 34.5747H57.6799L78.8724 34.4475C82.0926 34.3627 85.0082 37.1193 84.8777 40.512V55.016V62.3104V65.9152C84.9647 68.6294 83.7463 70.6651 81.3964 71.8101C81.0482 72.4039 67.6016 72.4463 52.9801 72.319C50.5432 72.319 48.1063 72.319 45.6693 72.2342C44.8425 73.2096 44.0592 74.1851 43.2324 75.1605C43.4065 74.4819 43.537 73.8458 43.6676 73.3369C43.6676 73.2945 43.7546 72.9128 43.8852 72.2342C41.5353 72.2342 39.2724 72.1918 37.0966 72.1918C25.9999 72.0646 16.9485 71.9374 15.9041 72.0646C12.8579 72.107 10.1599 69.4776 10.334 66.3393C10.334 61.5471 10.421 49.1211 10.334 44.5409C10.334 43.6927 10.2469 40.2576 10.3775 39.5366C10.6386 36.9921 12.9885 34.8716 15.643 34.7868H19.1678L41.6658 34.6171H49.0201L51.457 31.6485"
          />
    <path d="M53.7638 20.1126L47.4975 27.6614L58.7247 27.7462C59.0293 25.8802 59.2904 24.0566 59.4645 22.6995C60.2043 19.4764 55.7221 17.5256 53.7638 20.1126ZM70.8223 43.8618C70.8223 43.8618 61.9014 43.3953 56.4183 43.0984L57.6803 34.6166V34.5317H50.8917C50.152 37.7973 47.9326 47.1697 48.1937 46.9577C48.2808 48.9085 50.0214 50.4352 52.0667 50.3504L64.3819 49.7143L52.3713 64.2183C50.5001 66.4236 48.1067 69.265 45.6698 72.2336C48.1067 72.2761 50.5436 72.3185 52.9805 72.3185C54.3731 70.6645 55.6786 69.0529 56.8535 67.6534L72.8676 48.3572C74.3036 46.7032 73.0851 43.8618 70.8223 43.8618ZM37.097 72.1912C39.2728 72.1912 41.5357 72.2336 43.8856 72.2336C44.6689 68.9681 46.8882 59.5532 46.5836 59.8501C46.4531 57.8993 44.7124 56.3725 42.7542 56.4998L30.352 57.0935L49.064 34.5741H41.7098L21.9533 58.4506C20.3867 60.1894 21.8227 63.0308 24.1291 62.9884L38.359 63.7094C37.9673 66.2963 37.4887 69.4346 37.097 72.1912ZM35.3564 84.1931C34.6601 87.2466 38.8812 89.2398 40.9265 86.8225C42.7542 84.6172 45.017 81.9454 47.3234 79.1464H36.0961C35.835 80.7579 35.4869 82.9632 35.3564 84.1931Z"
          />
</svg>

<svg xmlns="http://www.w3.org/2000/svg" width="auto" height="1em" fill="currentColor" viewBox="0 0 105 105">
    <path d="M101.241 45.983a50 50 0 0 1 0 14.843c-.61 3.52-5.962 3.477-6.528 0a50 50 0 0 1 0-14.843c.305-1.74 2.045-2.927 3.83-2.63a3.35 3.35 0 0 1 2.698 2.63M91.492 62.31V40.512c.348-6.616-5.744-12.85-12.62-12.68l-20.148-.085-11.227-.085-28.286-.127c-2.785 0-6.397-.17-8.92 1.23-4.7 2.035-7.746 7.21-7.485 12.129v25.445c-.261 6.786 6.048 13.19 13.098 12.935l20.192-.085h11.227l28.242-.17h3.873c5.092-.211 9.835-3.731 11.445-8.481 1-2.672.479-5.64.61-8.228m-40.6-27.735h6.788l21.192-.128c3.22-.084 6.136 2.672 6.006 6.065v25.403c.087 2.714-1.132 4.75-3.482 5.895-.348.594-13.794.636-28.416.509-2.437 0-4.874 0-7.31-.085-.828.976-1.61 1.951-2.438 2.927.175-.68.305-1.315.436-1.824 0-.043.087-.424.217-1.103-2.35 0-4.613-.042-6.788-.042-11.097-.127-20.149-.255-21.193-.127-3.046.042-5.744-2.587-5.57-5.726 0-4.792.087-17.218 0-21.798 0-.848-.087-4.283.043-5.004.262-2.545 2.611-4.665 5.266-4.75h3.525l22.498-.17h7.354l2.437-2.968"/>
    <path d="m53.764 20.113-6.267 7.548 11.228.085c.304-1.866.565-3.69.74-5.046.74-3.224-3.743-5.174-5.701-2.587m17.058 23.749s-8.92-.467-14.404-.764l1.262-8.481v-.085h-6.788c-.74 3.265-2.96 12.638-2.698 12.426.087 1.95 1.827 3.477 3.873 3.392l12.315-.636-12.01 14.504a651 651 0 0 0-6.702 8.016c2.437.042 4.874.085 7.31.085 1.393-1.654 2.699-3.266 3.874-4.666l16.014-19.296c1.436-1.654.217-4.495-2.046-4.495m-33.725 28.33c2.176 0 4.439.042 6.789.042.783-3.266 3.002-12.68 2.698-12.384-.13-1.95-1.872-3.477-3.83-3.35l-12.402.593 18.712-22.519H41.71L21.953 58.451c-1.566 1.738-.13 4.58 2.176 4.537l14.23.721c-.392 2.587-.87 5.726-1.262 8.482m-1.74 12.001c-.697 3.054 3.524 5.047 5.57 2.63 1.827-2.206 4.09-4.878 6.396-7.677H36.096c-.261 1.612-.61 3.817-.74 5.047"/>
</svg>
